X:1
T:Title
%%score { 1 | 2 }
L:1/8
M:4/4
K:Ab
V:1 treble nm="Grand Piano"
V:2 bass 
V:1
 z4 z2[Q:1/4=100] [A,C][B,D] | [CE]2 [CE]2 [DF][CE][EA]B | c2 d2 c2 cd | c B3 F2 G2 | %4
 [CA]6 [A,C][B,D] | [CE]2 [CE]2 [DF][CE][EA]B | c2 d2 c2 cc | B B3 c2 =d2 |[M:3/4] [Ge]6 | %9
[M:3/8] [Ge]3 |[M:4/4] ecAB c3 c |[M:3/4] [FB][FA] [EG][DF] [CE]2 |[M:1/4] EE | %13
[M:4/4] F2 [EA]2 [Ed]2 [Ec]2 |[M:3/4] [EB]6 |[M:3/8] [Ge]3 |[M:4/4] ecAB c3 c | %17
[M:3/4] [FB][FA] [EG][DF] [CE]2 |[M:1/4] [EA]B |[M:4/4] c2 d2 c B2 E |[M:3/4] [CA]6 |] %21
V:2
 z4 z2 [A,,E,][A,,E,] | [A,,A,]2 [A,,A,]2 [A,,A,][A,,A,][C,A,][E,G,E] | %2
 [A,E]2 [A,F]2 [A,E]2 [A,E][A,F] | [E,A,E] [E,G,D]3 [E,A,D]2 [E,B,D]2 | [A,,A,]6 [A,,E,][A,,E,] | %5
 [A,,A,]2 [A,,A,]2 [A,,A,][A,,A,][C,A,][E,G,E] | [A,E]2 [A,F]2 [A,E]2 [A,EA][A,EA] | %7
 [B,EG] [B,EG]3 [B,=DA]2 [B,FA]2 |[M:3/4][K:bass] [E,E]6 |[M:3/8] [E,D]3 | %10
[M:4/4][K:treble] [A,CA][A,EA][A,CE][A,DE] [A,EA]3[K:bass] [A,E] | %11
[M:3/4] [D,D][D,D] [D,D][D,A,] [A,,A,]2 |[M:1/4] [C,A,][C,A,] | %13
[M:4/4] [D,A,D]2 [C,A,]2 [B,,G,]2 [A,,A,]2 |[M:3/4] [E,G,]6 |[M:3/8] [E,D]3 | %16
[M:4/4][K:treble] [A,CA][A,EA][A,CE][A,DE] [A,EA]3[K:bass] [A,E] | %17
[M:3/4] [D,D][D,D] [D,D][D,A,] [A,,A,]2 |[M:1/4] [C,A,][E,G,E] | %19
[M:4/4][K:treble] [A,E]2 [A,F]2[K:bass] [E,G,E] [E,G,D]2 [E,G,D] |[M:3/4] [A,,A,]6 |] %21

